X: 06065
T: MUSKEG JIG
C: Bob McQuillen 25 Sept 81
B: Bob's Note Book 6 #65
%R: jig
Z: 2021 John Chambers <jc:trillian.mit.edu>
M: 6/8
L: 1/8
K: G
D \
| EGA Bde | dBA BGG | Bde gba | gag ede |\
| deg aga | bag ede | ded BGB | AGG G2 :|
|: d \
| ege dBA | GAB deg | aba ged | BAB deg |\
| aga bag | ede ged | BAB dBA | BGG G2 :|
%%begintext align
%% It's
%% always such a pleasure when
%% we get to play up Hanover way
%% for Muskeg Music -
%%endtext

%%sep 1 1 500

%%sep 1 1 500

